assets/icons/water-svgrepo-com.svg

<svg width="24" height="24" viewBox="0 0 24 24" fill="none" xmlns="http://www.w3.org/2000/svg">
<path d="M0.5 3.3999C2.42 3.3999 2.42 4.3499 4.33 4.3499C6.24 4.3499 6.25 3.3999 8.16 3.3999C10.07 3.3999 10.08 4.3499 11.99 4.3499C13.9 4.3499 13.91 3.3999 15.82 3.3999C17.73 3.3999 17.74 4.3499 19.66 4.3499C21.58 4.3499 21.58 3.3999 23.5 3.3999" stroke="black" stroke-width="2"/>
<path d="M0.5 9.15015C2.42 9.15015 2.42 10.1001 4.33 10.1001C6.24 10.1001 6.25 9.15015 8.16 9.15015C10.07 9.15015 10.08 10.1001 11.99 10.1001C13.9 10.1001 13.91 9.15015 15.82 9.15015C17.73 9.15015 17.74 10.1001 19.66 10.1001C21.58 10.1001 21.58 9.15015 23.5 9.15015" stroke="black" stroke-width="2"/>
<path d="M0.5 14.8999C2.42 14.8999 2.42 15.8499 4.33 15.8499C6.24 15.8499 6.25 14.8999 8.16 14.8999C10.07 14.8999 10.08 15.8499 11.99 15.8499C13.9 15.8499 13.91 14.8999 15.82 14.8999C17.73 14.8999 17.74 15.8499 19.66 15.8499C21.58 15.8499 21.58 14.8999 23.5 14.8999" stroke="black" stroke-width="2"/>
<path d="M0.5 20.6499C2.42 20.6499 2.42 21.6499 4.33 21.6499C6.24 21.6499 6.25 20.6499 8.16 20.6499C10.07 20.6499 10.08 21.6499 11.99 21.6499C13.9 21.6499 13.91 20.6499 15.82 20.6499C17.73 20.6499 17.74 21.6499 19.66 21.6499C21.58 21.6499 21.58 20.6499 23.5 20.6499" stroke="black" stroke-width="2"/>
</svg>

<?xml version="1.0" encoding="utf-8"?><!-- Uploaded to: SVG Repo, www.svgrepo.com, Generator: SVG Repo Mixer Tools -->
<svg width="800px" height="800px" viewBox="0 0 24 24" id="Layer_1" data-name="Layer 1" xmlns="http://www.w3.org/2000/svg"><path d="M.5,3.4c1.92,0,1.92.95,3.83.95S6.25,3.4,8.16,3.4s1.92.95,3.83.95,1.92-.95,3.83-.95,1.92.95,3.84.95,1.92-.95,3.84-.95"/><path d="M.5,9.15c1.92,0,1.92.95,3.83.95s1.92-.95,3.83-.95,1.92.95,3.83.95,1.92-.95,3.83-.95,1.92.95,3.84.95,1.92-.95,3.84-.95"/><path d="M.5,14.9c1.92,0,1.92.95,3.83.95s1.92-.95,3.83-.95,1.92.95,3.83.95,1.92-.95,3.83-.95,1.92.95,3.84.95,1.92-.95,3.84-.95"/><path d="M.5,20.65c1.92,0,1.92,1,3.83,1s1.92-1,3.83-1,1.92,1,3.83,1,1.92-1,3.83-1,1.92,1,3.84,1,1.92-1,3.84-1"/></svg>
